actions/scalable/debug-run-cursor.svg

<svg height="22" width="22" xmlns="http://www.w3.org/2000/svg" xmlns:sodipodi="http://sodipodi.sourceforge.net/DTD/sodipodi-0.dtd" xmlns:inkscape="http://www.inkscape.org/namespaces/inkscape">
 <path d="m 431.492,533.6532 c -0.21912,0 -0.40019,0.17732 -0.40019,0.40019 l 0,0.79169 c -0.39181,0.10439 -0.76234,0.26188 -1.1049,0.46109 l -0.56549,-0.56549 c -0.0788,-0.0788 -0.16773,-0.11223 -0.2697,-0.1131 -0.10197,-8.3e-4 -0.20962,0.0356 -0.28709,0.1131 l -1.0875,1.0875 c -0.15494,0.15495 -0.14887,0.3992 0.009,0.5568 l 0.55679,0.56549 c -0.19922,0.34253 -0.3567,0.71307 -0.46109,1.1049 l -0.78299,0 c -0.22287,0 -0.40889,0.18107 -0.40889,0.40019 l 0,1.5312 c 0,0.21912 0.18602,0.40019 0.40889,0.40019 l 0.78299,0 c 0.10439,0.39181 0.26187,0.76234 0.46109,1.1049 l -0.55679,0.55679 c -0.15759,0.15759 -0.16366,0.41055 -0.009,0.56549 l 1.0875,1.0875 c 0.15494,0.15495 0.39919,0.1489 0.55679,-0.009 l 0.56549,-0.55679 c 0.34254,0.19921 0.71307,0.3567 1.1049,0.46109 l 0,0.78299 c 0,0.22287 0.18107,0.40889 0.40019,0.40889 l 1.5312,0 c 0.21912,0 0.40019,-0.18602 0.40019,-0.40889 l 0,-0.78299 c 0.39181,-0.10439 0.76234,-0.26188 1.1049,-0.46109 l 0.56549,0.55679 c 0.15759,0.15759 0.40185,0.16364 0.55679,0.009 l 1.0875,-1.0875 c 0.15495,-0.15494 0.14888,-0.4079 -0.009,-0.56549 l -0.55679,-0.55679 c 0.19922,-0.34254 0.3567,-0.71307 0.46109,-1.1049 l 0.78299,0 c 0.22286,0 0.40889,-0.18107 0.40889,-0.40019 l 0,-1.5312 c 0,-0.21912 -0.18603,-0.40019 -0.40889,-0.40019 l -0.78299,0 c -0.10439,-0.39181 -0.26187,-0.76235 -0.46109,-1.1049 l 0.55679,-0.56549 c 0.15759,-0.1576 0.16366,-0.40185 0.009,-0.5568 l -1.0875,-1.0875 c -0.15494,-0.15494 -0.3992,-0.15759 -0.55679,0 l -0.56549,0.56549 c -0.34254,-0.19921 -0.71307,-0.3567 -1.1049,-0.46109 l 0,-0.79169 c 0,-0.22287 -0.18107,-0.40019 -0.40019,-0.40019 z m 0.76559,3.8801 c 0.92919,0 1.6791,0.75858 1.6791,1.6878 0,0.92919 -0.74988,1.6791 -1.6791,1.6791 -0.92919,0 -1.6791,-0.74988 -1.6791,-1.6791 0,-0.92919 0.74988,-1.6878 1.6791,-1.6878 z" display="block" fill="#4d4d4d" fill-opacity="1" sodipodi:nodetypes="ssccsccccccssssccscccccssssccccccccssssccccssccssssssss" inkscape:connector-curvature="0" transform="matrix(0.93075 0.36566 -0.36566 0.93075 -196.9 -648.84)"/>
 <path d="m 14,3 0,1 2,0 0,14 -2,0 0,1 5,0 0,-1 -2,0 0,-14 2,0 0,-1 z" fill="#4d4d4d" sodipodi:nodetypes="ccccccccccccc" inkscape:connector-curvature="0" transform="matrix(1 0 0 1 0 0)"/>
</svg>

<?xml version="1.0" encoding="UTF-8" standalone="no"?>
<!-- Created with Inkscape (http://www.inkscape.org/) -->

<svg
   xmlns:dc="http://purl.org/dc/elements/1.1/"
   xmlns:cc="http://creativecommons.org/ns#"
   xmlns:rdf="http://www.w3.org/1999/02/22-rdf-syntax-ns#"
   xmlns:svg="http://www.w3.org/2000/svg"
   xmlns="http://www.w3.org/2000/svg"
   xmlns:sodipodi="http://sodipodi.sourceforge.net/DTD/sodipodi-0.dtd"
   xmlns:inkscape="http://www.inkscape.org/namespaces/inkscape"
   width="22"
   height="22"
   id="svg3813"
   version="1.1"
   inkscape:version="0.48+devel r"
   sodipodi:docname="debug-run-cursor.svg">
  <defs
     id="defs3815" />
  <sodipodi:namedview
     id="base"
     pagecolor="#ffffff"
     bordercolor="#666666"
     borderopacity="1.0"
     inkscape:pageopacity="0.0"
     inkscape:pageshadow="2"
     inkscape:zoom="38.085079"
     inkscape:cx="10.332703"
     inkscape:cy="9.769951"
     inkscape:document-units="px"
     inkscape:current-layer="layer1"
     showgrid="true"
     fit-margin-top="0"
     fit-margin-left="0"
     fit-margin-right="0"
     fit-margin-bottom="0"
     inkscape:window-width="1366"
     inkscape:window-height="668"
     inkscape:window-x="-2"
     inkscape:window-y="23"
     inkscape:window-maximized="1"
     inkscape:showpageshadow="false"
     showguides="true">
    <inkscape:grid
       type="xygrid"
       id="grid4109" />
    <sodipodi:guide
       position="2.0000072,19.999993"
       orientation="18,0"
       id="guide4115" />
    <sodipodi:guide
       position="2.0000072,1.9999929"
       orientation="0,18"
       id="guide4117" />
    <sodipodi:guide
       position="20.000007,1.9999929"
       orientation="-18,0"
       id="guide4119" />
    <sodipodi:guide
       position="20.000007,19.999993"
       orientation="0,-18"
       id="guide4121" />
    <sodipodi:guide
       position="3.0000072,18.999993"
       orientation="16,0"
       id="guide4123" />
    <sodipodi:guide
       position="3.0000072,2.9999929"
       orientation="0,16"
       id="guide4125" />
    <sodipodi:guide
       position="19.000007,2.9999929"
       orientation="-16,0"
       id="guide4127" />
    <sodipodi:guide
       position="19.000007,18.999993"
       orientation="0,-16"
       id="guide4129" />
  </sodipodi:namedview>
  <metadata
     id="metadata3818">
    <rdf:RDF>
      <cc:Work
         rdf:about="">
        <dc:format>image/svg+xml</dc:format>
        <dc:type
           rdf:resource="http://purl.org/dc/dcmitype/StillImage" />
        <dc:title />
      </cc:Work>
    </rdf:RDF>
  </metadata>
  <g
     inkscape:label="Capa 1"
     inkscape:groupmode="layer"
     id="layer1"
     transform="translate(-378.85714,-540.07647)">
    <path
       style="opacity:1;fill:#666666;fill-opacity:1;stroke:none"
       d="M 14 3 L 14 4 L 16 4 L 16 18 L 14 18 L 14 19 L 19 19 L 19 18 L 17 18 L 17 4 L 19 4 L 19 3 L 14 3 z M 5 8 L 5 10 L 3 10 L 3 12 L 5 12 L 5 14 L 9 11 L 5 8 z "
       transform="translate(378.85714,540.07647)"
       id="path4152" />
  </g>
</svg>
